icons/city_fill.svg

<svg
  xmlns="http://www.w3.org/2000/svg"
  width="24"
  height="24"
  viewBox="0 0 24 24"
  fill="none"
  stroke="currentColor"
  stroke-width="2"
  stroke-linecap="round"
  stroke-linejoin="round"
>
  <path d="M31 30h3v-2h-3z" />
  <path d="M34 34h-3v-2h3z" />
  <path d="M31 38h3v-2h-3z" />
  <path
    fill-rule="evenodd"
    d="m17 4 16 6v14h4a1 1 0 0 1 1 1v17h1a1 1 0 1 1 0 2H9a1 1 0 1 1 0-2h1V21a1 1 0 0 1 1-1h2v-7h2v7h2zm19 38h-2v-2h-3v2h-2V26h7zM17 22h-5v20h5zm5-9h-2v2h2zm2 0h2v2h-2zm6 0h-2v2h2zm-10 4h2v2h-2zm6 0h-2v2h2zm2 0h2v2h-2zm-6 4h-2v2h2zm2 0h2v2h-2zm6 0h-2v2h2zm-10 4h2v2h-2zm6 0h-2v2h2zm-4 4h-2v2h2zm2 0h2v2h-2zm-4 4h2v2h-2zm6 0h-2v2h2zm-4 4h-2v2h2zm2 0h2v2h-2z"
    clip-rule="evenodd"
  />
</svg>

<svg width="48" height="48" viewBox="0 0 48 48" fill="none" xmlns="http://www.w3.org/2000/svg">
<path d="M31 30H34V28H31V30Z" fill="black"/>
<path d="M34 34H31V32H34V34Z" fill="black"/>
<path d="M31 38H34V36H31V38Z" fill="black"/>
<path fill-rule="evenodd" clip-rule="evenodd" d="M17 4L33 10V24H37C37.5523 24 38 24.4477 38 25V42H39C39.5523 42 40 42.4477 40 43C40 43.5523 39.5523 44 39 44H9C8.44772 44 8 43.5523 8 43C8 42.4477 8.44772 42 9 42H10V21C10 20.4477 10.4477 20 11 20H13L13 13H15L15 20H17V4ZM36 42H34V40H31V42H29V26H36V42ZM17 22H12V42H17V22ZM22 13H20V15H22V13ZM24 13H26V15H24V13ZM30 13H28V15H30V13ZM20 17H22V19H20V17ZM26 17H24V19H26V17ZM28 17H30V19H28V17ZM22 21H20V23H22V21ZM24 21H26V23H24V21ZM30 21H28V23H30V21ZM20 25H22V27H20V25ZM26 25H24V27H26V25ZM22 29H20V31H22V29ZM24 29H26V31H24V29ZM20 33H22V35H20V33ZM26 33H24V35H26V33ZM22 37H20V39H22V37ZM24 37H26V39H24V37Z" fill="black"/>
</svg>
